packages/crayons-icon/icons/link.svg

<?xml version="1.0" encoding="UTF-8"?>
<svg width="15px" height="15px" viewBox="0 0 15 15" version="1.1" xmlns="http://www.w3.org/2000/svg" xmlns:xlink="http://www.w3.org/1999/xlink">
    <!-- Generator: Sketch 52.6 (67491) - http://www.bohemiancoding.com/sketch -->
    <title>icon/link</title>
    <desc>Created with Sketch.</desc>
    <g id="Icons-✅" stroke="none" stroke-width="1" fill="none" fill-rule="evenodd">
        <g id="Icons" transform="translate(-490.000000, -1729.000000)" fill="currentColor">
            <g id="icon/link" transform="translate(491.000000, 1729.000000)">
                <g id="link" transform="translate(-1.000000, 0.000000)">
                    <path d="M9.51,4.5 C9.78558469,4.23199214 10.2244153,4.23199214 10.5,4.5 C10.6369644,4.63025306 10.7145003,4.81098915 10.7145003,5 C10.7145003,5.18901085 10.6369644,5.36974694 10.5,5.5 L6.5,9.5 C6.36832072,9.63433974 6.18811326,9.71002687 6,9.71 C5.81465043,9.71079113 5.6372544,9.63476426 5.51,9.5 C5.37303562,9.36974694 5.29549974,9.18901085 5.29549974,9 C5.29549974,8.81098915 5.37303562,8.63025306 5.51,8.5 L9.51,4.5 Z M8.76,10.34 L8.75,10.33 C9.02614238,10.0538576 9.47385761,10.0538577 9.74999997,10.33 C10.0261423,10.6061424 10.0261424,11.0538576 9.75,11.33 L8.34,12.74 C7.26111293,13.8610842 5.66077187,14.3119013 4.15534354,13.9188203 C2.64991521,13.5257394 1.47426059,12.3500848 1.08117966,10.8446565 C0.688098726,9.33922813 1.13891581,7.73888707 2.26,6.66 L3.66,5.24 C3.83863279,5.06136721 4.09899577,4.99160316 4.3430127,5.0569873 C4.58702964,5.12237144 4.77762856,5.31297036 4.8430127,5.5569873 C4.90839684,5.80100423 4.83863279,6.06136721 4.66,6.24 L3.25,7.65 C2.1182922,8.78238084 2.1182922,10.6176192 3.25,11.75 C4.40346916,12.8295739 6.19653084,12.8295739 7.35,11.75 L8.76,10.34 Z M13.74,1.26 C14.5491265,2.06676475 15.0038882,3.16239108 15.0038882,4.305 C15.0038882,5.44760892 14.5491265,6.54323525 13.74,7.35 L12.33,8.76 C12.2017181,8.89210239 12.0240816,8.96460708 11.84,8.96 C11.6531238,8.963808 11.472698,8.89163767 11.34,8.76 C11.0654444,8.48320224 11.0654444,8.03679776 11.34,7.76 L12.75,6.35 C13.8817078,5.21761916 13.8817078,3.38238084 12.75,2.25 C11.5965308,1.17042615 9.80346916,1.17042615 8.65,2.25 L7.25,3.67 C7.07136721,3.84863279 6.81100423,3.91839684 6.5669873,3.8530127 C6.32297036,3.78762856 6.13237144,3.59702964 6.0669873,3.3530127 C6.00160316,3.10899577 6.07136721,2.84863279 6.25,2.67 L7.66,1.26 C9.33912646,-0.418509046 12.0608735,-0.418509046 13.74,1.26 Z" id="Combined-Shape"></path>
                </g>
            </g>
        </g>
    </g>
</svg>

<svg viewBox="0 0 15 15"><path d="M9.51 4.5a.71.71 0 0 1 1.205.5.69.69 0 0 1-.215.5l-4 4a.7.7 0 0 1-.5.21.67.67 0 0 1-.49-.21.69.69 0 0 1 0-1l4-4zm-.75 5.84l-.01-.01a.707.707 0 0 1 1 1l-1.41 1.41a4.3 4.3 0 1 1-6.08-6.08l1.4-1.42a.707.707 0 0 1 1 1L3.25 7.65a2.9 2.9 0 0 0 0 4.1 3 3 0 0 0 4.1 0l1.41-1.41zm4.98-9.08a4.3 4.3 0 0 1 0 6.09l-1.41 1.41a.66.66 0 0 1-.49.2.69.69 0 0 1-.5-.2.71.71 0 0 1 0-1l1.41-1.41a2.9 2.9 0 0 0 0-4.1 3 3 0 0 0-4.1 0l-1.4 1.42a.707.707 0 0 1-1-1l1.41-1.41a4.3 4.3 0 0 1 6.08 0z" fill="currentColor" fill-rule="evenodd"/></svg>
